dist/img/24h_circle.svg

<svg width="79" height="78" viewBox="0 0 79 78" fill="none" xmlns="http://www.w3.org/2000/svg">
<g style="mix-blend-mode:soft-light" filter="url(#filter0_f_211_4132)">
<circle cx="39.5" cy="39" r="35" fill="#EBEDEF"/>
</g>
<rect x="17.5" y="17" width="44" height="44" rx="22" fill="#44B46D"/>
<path d="M29.9247 26.1025C29.9006 26.1069 29.8766 26.1134 29.8547 26.12C29.5944 26.1791 29.4106 26.4131 29.4172 26.68V31.72H34.4572C34.6584 31.7222 34.8466 31.6172 34.9494 31.4422C35.05 31.2672 35.05 31.0528 34.9494 30.8778C34.8466 30.7028 34.6584 30.5978 34.4572 30.6H31.2722C33.3941 28.5241 36.2925 27.24 39.4972 27.24C45.9984 27.24 51.2572 32.4988 51.2572 39C51.2572 45.5013 45.9984 50.76 39.4972 50.76C32.9959 50.76 27.7372 45.5013 27.7372 39C27.7372 37.0553 28.2163 35.2244 29.0497 33.61L28.0522 33.1025C27.1378 34.87 26.6172 36.8759 26.6172 39C26.6172 46.1072 32.39 51.88 39.4972 51.88C46.6044 51.88 52.3772 46.1072 52.3772 39C52.3772 31.8928 46.6044 26.12 39.4972 26.12C36.0103 26.12 32.8559 27.5222 30.5372 29.7775V26.68C30.5438 26.5181 30.4781 26.3628 30.3622 26.2534C30.2441 26.1419 30.0844 26.0872 29.9247 26.1025ZM39.4972 27.8C39.1888 27.8 38.9372 28.0516 38.9372 28.36C38.9372 28.6684 39.1888 28.92 39.4972 28.92C39.8056 28.92 40.0572 28.6684 40.0572 28.36C40.0572 28.0516 39.8056 27.8 39.4972 27.8ZM44.8172 29.2175C44.5088 29.2175 44.2572 29.4691 44.2572 29.7775C44.2572 30.0859 44.5088 30.3375 44.8172 30.3375C45.1256 30.3375 45.3772 30.0859 45.3772 29.7775C45.3772 29.4691 45.1256 29.2175 44.8172 29.2175ZM48.7197 33.12C48.4113 33.12 48.1597 33.3716 48.1597 33.68C48.1597 33.9884 48.4113 34.24 48.7197 34.24C49.0281 34.24 49.2797 33.9884 49.2797 33.68C49.2797 33.3716 49.0281 33.12 48.7197 33.12ZM28.8572 38.44C28.5488 38.44 28.2972 38.6916 28.2972 39C28.2972 39.3084 28.5488 39.56 28.8572 39.56C29.1656 39.56 29.4172 39.3084 29.4172 39C29.4172 38.6916 29.1656 38.44 28.8572 38.44ZM50.1372 38.44C49.8288 38.44 49.5772 38.6916 49.5772 39C49.5772 39.3084 49.8288 39.56 50.1372 39.56C50.4456 39.56 50.6972 39.3084 50.6972 39C50.6972 38.6916 50.4456 38.44 50.1372 38.44ZM30.2747 43.76C29.9663 43.76 29.7147 44.0116 29.7147 44.32C29.7147 44.6284 29.9663 44.88 30.2747 44.88C30.5831 44.88 30.8347 44.6284 30.8347 44.32C30.8347 44.0116 30.5831 43.76 30.2747 43.76ZM48.7197 43.76C48.4113 43.76 48.1597 44.0116 48.1597 44.32C48.1597 44.6284 48.4113 44.88 48.7197 44.88C49.0281 44.88 49.2797 44.6284 49.2797 44.32C49.2797 44.0116 49.0281 43.76 48.7197 43.76ZM34.1772 47.6625C33.8688 47.6625 33.6172 47.9141 33.6172 48.2225C33.6172 48.5309 33.8688 48.7825 34.1772 48.7825C34.4856 48.7825 34.7372 48.5309 34.7372 48.2225C34.7372 47.9141 34.4856 47.6625 34.1772 47.6625ZM44.8172 47.6625C44.5088 47.6625 44.2572 47.9141 44.2572 48.2225C44.2572 48.5309 44.5088 48.7825 44.8172 48.7825C45.1256 48.7825 45.3772 48.5309 45.3772 48.2225C45.3772 47.9141 45.1256 47.6625 44.8172 47.6625ZM39.4972 49.08C39.1888 49.08 38.9372 49.3316 38.9372 49.64C38.9372 49.9484 39.1888 50.2 39.4972 50.2C39.8056 50.2 40.0572 49.9484 40.0572 49.64C40.0572 49.3316 39.8056 49.08 39.4972 49.08Z" fill="#EBEDEF"/>
<path d="M33.1289 36.935C33.1289 35.4803 34.2358 34.4675 35.7889 34.4675C37.2873 34.4675 38.3789 35.4235 38.3789 36.725C38.3789 37.5607 37.9873 38.2388 36.6639 39.5775L34.8964 41.3625V41.45H38.5189V42.5525H33.1989V41.66L35.8589 38.895C36.9155 37.7947 37.1714 37.3747 37.1714 36.795C37.1714 36.0732 36.5502 35.535 35.7364 35.535C34.8658 35.535 34.2839 36.0928 34.2839 36.935V36.9525H33.1289V36.935Z" fill="#EBEDEF"/>
<path fill-rule="evenodd" clip-rule="evenodd" d="M43.1914 34.66C41.7848 36.7666 40.608 38.6019 39.9014 39.8925V41.03H43.7514V42.5525H44.9239V41.03H46.0264V39.9275H44.9239V34.66H43.1914ZM43.7689 35.745H43.6989C42.918 36.876 42.0036 38.2607 41.0739 39.875V39.9625H43.7689V35.745Z" fill="#EBEDEF"/>
<defs>
<filter id="filter0_f_211_4132" x="0.5" y="0" width="78" height="78" filterUnits="userSpaceOnUse" color-interpolation-filters="sRGB">
<feFlood flood-opacity="0" result="BackgroundImageFix"/>
<feBlend mode="normal" in="SourceGraphic" in2="BackgroundImageFix" result="shape"/>
<feGaussianBlur stdDeviation="2" result="effect1_foregroundBlur_211_4132"/>
</filter>
</defs>
</svg>

<svg width="79" height="78" fill="none" xmlns="http://www.w3.org/2000/svg"><g style="mix-blend-mode:soft-light" filter="url(#filter0_f_211_4132)"><circle cx="39.5" cy="39" r="35" fill="#EBEDEF"/></g><rect x="17.5" y="17" width="44" height="44" rx="22" fill="#44B46D"/><path d="M29.925 26.102a.65.65 0 00-.07.018.561.561 0 00-.438.56v5.04h5.04a.563.563 0 00.492-.278.563.563 0 000-.564.563.563 0 00-.492-.278h-3.185a11.721 11.721 0 018.225-3.36c6.501 0 11.76 5.259 11.76 11.76 0 6.501-5.259 11.76-11.76 11.76A11.752 11.752 0 0129.05 33.61l-.998-.508A12.803 12.803 0 0026.617 39c0 7.107 5.773 12.88 12.88 12.88 7.107 0 12.88-5.773 12.88-12.88 0-7.107-5.773-12.88-12.88-12.88-3.487 0-6.641 1.402-8.96 3.657V26.68a.56.56 0 00-.612-.578zm9.572 1.698a.561.561 0 000 1.12.561.561 0 000-1.12zm5.32 1.418a.561.561 0 000 1.12.561.561 0 000-1.12zm3.903 3.902a.561.561 0 000 1.12.561.561 0 000-1.12zm-19.863 5.32a.561.561 0 000 1.12.561.561 0 000-1.12zm21.28 0a.561.561 0 000 1.12.561.561 0 000-1.12zm-19.862 5.32a.561.561 0 000 1.12.561.561 0 000-1.12zm18.445 0a.561.561 0 000 1.12.561.561 0 000-1.12zm-14.543 3.903a.561.561 0 000 1.12.561.561 0 000-1.12zm10.64 0a.561.561 0 000 1.12.561.561 0 000-1.12zm-5.32 1.417a.561.561 0 000 1.12.561.561 0 000-1.12z" fill="#EBEDEF"/><path d="M33.129 36.935c0-1.455 1.107-2.468 2.66-2.468 1.498 0 2.59.956 2.59 2.258 0 .836-.392 1.514-1.715 2.852l-1.768 1.785v.088h3.623v1.102h-5.32v-.892l2.66-2.765c1.056-1.1 1.312-1.52 1.312-2.1 0-.722-.62-1.26-1.435-1.26-.87 0-1.452.558-1.452 1.4v.017h-1.155v-.017z" fill="#EBEDEF"/><path fill-rule="evenodd" clip-rule="evenodd" d="M43.191 34.66c-1.406 2.107-2.583 3.942-3.29 5.233v1.137h3.85v1.523h1.173V41.03h1.102v-1.102h-1.102V34.66H43.19zm.578 1.085h-.07a59.41 59.41 0 00-2.625 4.13v.087h2.695v-4.217z" fill="#EBEDEF"/><defs><filter id="filter0_f_211_4132" x=".5" y="0" width="78" height="78" filterUnits="userSpaceOnUse" color-interpolation-filters="sRGB"><feFlood flood-opacity="0" result="BackgroundImageFix"/><feBlend in="SourceGraphic" in2="BackgroundImageFix" result="shape"/><feGaussianBlur stdDeviation="2" result="effect1_foregroundBlur_211_4132"/></filter></defs></svg>
